images/Logo.svg

<svg width="128" height="128" viewBox="0 0 128 128" fill="none" xmlns="http://www.w3.org/2000/svg">
<path d="M1.06 64.2C1.06 41.98 3.82 26.41 13.65 23.2C17.44 22 40.78 21.4 64 21.4C87.22 21.4 110.59 22.01 114.38 23.24C124.24 26.41 127 42 127 64.2C127 86.4 124.24 101.98 114.41 105.2C110.62 106.38 87.27 107 64 107C40.73 107 17.41 106.38 13.62 105.15C3.82 102 1.06 86.42 1.06 64.2Z" fill="#EA4335"/>
<path d="M36.5 89H46.5V59H36.5V89ZM91.5 61.5C91.5 60.1739 90.9732 58.9021 90.0355 57.9645C89.0979 57.0268 87.8261 56.5 86.5 56.5H70.73L73.1 45.07L73.18 44.27C73.1737 43.2769 72.7789 42.3256 72.08 41.62L69.43 39L53 55.48C52.5239 55.934 52.1453 56.4803 51.8874 57.0855C51.6295 57.6907 51.4977 58.3421 51.5 59V84C51.5 85.3261 52.0268 86.5979 52.9645 87.5355C53.9021 88.4732 55.1739 89 56.5 89H79C79.9758 89.0034 80.9314 88.7212 81.7487 88.1881C82.5661 87.655 83.2097 86.8944 83.6 86L91.15 68.38C91.3831 67.7981 91.5019 67.1768 91.5 66.55V61.73V61.5Z" fill="white"/>
</svg>

<svg xmlns="http://www.w3.org/2000/svg" viewBox="0 0 128 128">
    <path fill="#ea4335" d="M1.06 64.2c0-22.22 2.76-37.79 12.59-41C17.44 22 40.78 21.4 64 21.4s46.59.61 50.38 1.84C124.24 26.41 127 42 127 64.2s-2.76 37.78-12.59 41c-3.79 1.18-27.14 1.8-50.41 1.8s-46.59-.62-50.38-1.85C3.82 102 1.06 86.42 1.06 64.2z"/>
    <path fill="#ffffff" d="M36.5 89h10V59h-10zm55-27.5a5 5 0 00-5-5H70.73l2.37-11.43.08-.8a3.8 3.8 0 00-1.1-2.65L69.43 39 53 55.48A4.84 4.84 0 0051.5 59v25a5 5 0 005 5H79a5 5 0 004.6-3l7.55-17.62a4.88 4.88 0 00.35-1.83v-4.82z"/>
</svg>
